X: 1
T: Duple Triple, The
M: 6/8
L: 1/8
R: jig
K: Ador
|:B|cAA eAB-|Bcd E^GB|cAA eAB|A^GF GAB|
cAA eAB-|Bcd eaa|^gab age|dB^G A2:|
|:f|^gee aee|^ge de Be|^gab age|de ce fe|
^gee aee|^ge de Be|^gab age|dB^G A2:|
